X: 1
T: Farmors brudpolska efter Susanne
R: \"Alvdalspolska
Z: John Chambers <jc@trillian.mit.edu>
M: 3/4
L: 1/8
K: D=B^c
V:1
|: A2 (A>c) A>c | A2 (A>c) A>c | e2 (g/a/)g/e/ f>g | (Tfe) (dc) d>e | f2 (f/a/)f/d/ e>c |
|  A2  A>c  A>c | A2  A>c  A>c | e2  g/a/g/e/  f>g |  Tfe   dc  d>e | f2  f/a/f/d/  e>c | d2 d4 :|
|: a2 ab ag | e2 g/a/g/e/ f>g | a2 a=c' ag | e2 g/a/g/e/ f>g | Tfe dc d>e | f2 f/a/f/d/ e>c |
| A2 A>c A>c | A2 A>c A>c | e2 g/a/g/e/ f>g | Tfe dc d>e | f2 f/a/f/d/ e>c | d2 d4 :|
V:2
|: [E2A,2] E>A E>A | [E2A,2] E>A E>A | c2 e/f/e/c/ d>c | dc AG F>G | A2 A/d/A/F/ G>F |
|  [E2A,2] E>A E>A | [E2A,2] E>A E>A | c2 e/f/e/c/ d>c | dc AG F>A | A2 A/d/A/F/ A>G | F2 D4 :|
|: f2 fg f>e | c2 e/f/e/c/ d>e | f2 fa f>e | c2 e/f/e/c/ d>c | dc AG F>G | A2 A/d/A/F/ G>F |
|  [E2A,2] E>A E>A | [E2A,2] E>A E>A | c2 e/f/e/c/ d>c | dc AG F>A | A2 A/d/A/F/ A>G | F2 D4 :|

